agir/front/components/genericComponents/logos/facebook_white.svg

<svg width="24" height="24" viewBox="0 0 24 24" fill="none" xmlns="http://www.w3.org/2000/svg">
<path d="M24 12.0003C24 5.37285 18.6274 0.000270844 12 0.000270844C5.37258 0.000270844 0 5.37285 0 12.0003C0 17.9898 4.38823 22.9543 10.125 23.8545V15.469H7.07813V12.0003H10.125V9.35652C10.125 6.34902 11.9165 4.68777 14.6576 4.68777C15.9705 4.68777 17.3438 4.92215 17.3438 4.92215V7.87527H15.8306C14.3399 7.87527 13.875 8.80028 13.875 9.74926V12.0003H17.2031L16.6711 15.469H13.875V23.8545C19.6118 22.9543 24 17.9898 24 12.0003Z" fill="#fff"/>
</svg>

<svg width="24" height="24" fill="none" xmlns="http://www.w3.org/2000/svg"><path d="M24 12c0-6.627-5.373-12-12-12S0 5.373 0 12c0 5.99 4.388 10.954 10.125 11.855v-8.386H7.078V12h3.047V9.357c0-3.008 1.791-4.67 4.533-4.67 1.313 0 2.686.235 2.686.235v2.953H15.83c-1.491 0-1.956.925-1.956 1.874V12h3.328l-.532 3.469h-2.796v8.386C19.612 22.955 24 17.99 24 12Z" fill="#fff"/></svg>
